svgs/hago.svg

<svg width="192" height="192" viewBox="0 0 192 192" fill="none" xmlns="http://www.w3.org/2000/svg">
<path fill-rule="evenodd" clip-rule="evenodd" d="M48 22C48 18.6863 45.3137 16 42 16C38.6863 16 36 18.6863 36 22V32H26C22.6863 32 20 34.6863 20 38C20 41.3137 22.6863 44 26 44H36V54C36 57.3137 38.6863 60 42 60C45.3137 60 48 57.3137 48 54V44H58C61.3137 44 64 41.3137 64 38C64 34.6863 61.3137 32 58 32H48V22ZM150 28C144.477 28 140 32.4772 140 38C140 43.5228 144.477 48 150 48C155.523 48 160 43.5228 160 38C160 32.4772 155.523 28 150 28ZM128 38C128 25.8497 137.85 16 150 16C162.15 16 172 25.8497 172 38C172 50.1503 162.15 60 150 60C137.85 60 128 50.1503 128 38ZM30.1362 93.7217C30.6264 86.0494 38.071 80 47.8979 80H96H144.102C153.929 80 161.374 86.0494 161.864 93.7217C161.954 95.1354 162 96.5619 162 98C162 134.451 132.451 164 96 164C59.5492 164 30 134.451 30 98C30 96.5619 30.0459 95.1354 30.1362 93.7217ZM47.8979 68C33.991 68 19.1838 76.9434 18.1606 92.9566C18.0541 94.6248 18 96.3065 18 98C18 141.078 52.9218 176 96 176C139.078 176 174 141.078 174 98C174 96.3065 173.946 94.6248 173.839 92.9566C172.816 76.9434 158.009 68 144.102 68H96H47.8979Z" fill="black"/>
</svg>

<svg xmlns="http://www.w3.org/2000/svg" width="192" height="192" fill="none" xmlns:v="https://vecta.io/nano"><path fill-rule="evenodd" d="M48 22a6 6 0 1 0-12 0v10H26a6 6 0 1 0 0 12h10v10a6 6 0 1 0 12 0V44h10a6 6 0 1 0 0-12H48V22zm102 6c-5.523 0-10 4.477-10 10s4.477 10 10 10 10-4.477 10-10-4.477-10-10-10zm-22 10c0-12.15 9.85-22 22-22s22 9.85 22 22-9.85 22-22 22-22-9.85-22-22zM30.136 93.722C30.626 86.049 38.071 80 47.898 80H96h48.102c9.827 0 17.272 6.049 17.762 13.722A67.33 67.33 0 0 1 162 98c0 36.451-29.549 66-66 66s-66-29.549-66-66a67.11 67.11 0 0 1 .136-4.278zM47.898 68c-13.907 0-28.714 8.943-29.737 24.957C18.054 94.625 18 96.307 18 98c0 43.078 34.922 78 78 78s78-34.922 78-78c0-1.694-.054-3.375-.161-5.043C172.816 76.943 158.009 68 144.102 68H96 47.898z" fill="#000"/></svg>
